X:10
T:Leken hinnes Lusia Mølmann (pols)
R:rorospols
Z:Småviltlaget, på Skuddhold, Track 17
Z:(also Rorostraktom #106)
M:3/4
L:1/8
K:D
g
|: "D"~(f>e) (e<d) (3d(ef) | "Em"g2 (g<e) g>b | "D"b(f g<e) d>f |
   "A"(e<c) A2- A>(g |
   "D"~f>e) (e<d) (3d(ef) | "Em"g2 (g<e) g>b | "D"b(f g<e) d>f |
   [1 "A"(e<c) "D"d2- d>(g :|[2 "A"(e<c) "D"d2- d>(A ||
|: "D"d3/2)f/ {f}a2 a2 | "G"(ag) b2- b3/2(a/ | "A"g3/2)(f/ e<a) f>d |
   "A/E"(e<c) A2- A>(A |
   "D"d3/2)f/ {f}a2 a2 | "G"(ag) b2- b3/2(a/ | "A"g3/2)(f/ e<a) f>d |
   [1 "A"(e<c) "D"d2- d>(A :|[2 "A"(e<c) "D"d2- d>(g ||
